assets/svg/1f1f1-1f1f7.svg

<svg xmlns="http://www.w3.org/2000/svg" viewBox="0 0 64 64" enable-background="new 0 0 64 64"><path fill="#ed4c5c" d="m56 14h-24v6h27.496c-.935-2.141-2.109-4.154-3.496-6"/><path fill="#f9f9f9" d="m61.4 38c.395-1.939.602-3.945.602-6h-60c0 2.055.207 4.061.602 6h58.796"/><path fill="#ed4c5c" d="m32 2v6h18c-5.01-3.768-11.246-6-18-6"/><g fill="#f9f9f9"><path d="m32 14h24c-1.705-2.271-3.729-4.293-6-6h-18v6"/><path d="m59.5 20h-27.496v6h29.398c-.423-2.088-1.068-4.094-1.902-6"/></g><g fill="#ed4c5c"><path d="M32,26v6h30c0-2.055-0.207-4.061-0.602-6H32z"/><path d="m4.504 44h54.992c.834-1.906 1.479-3.912 1.902-6h-58.796c.423 2.088 1.068 4.094 1.902 6"/></g><path fill="#f9f9f9" d="M8,50h48c1.387-1.846,2.561-3.859,3.496-6H4.504C5.439,46.141,6.613,48.154,8,50z"/><path fill="#ed4c5c" d="M8,50c1.707,2.271,3.729,4.293,6,6h36c2.271-1.707,4.295-3.729,6-6H8z"/><path fill="#f9f9f9" d="m14 56c5.01 3.766 11.246 6 18 6s12.986-2.234 18-6h-36"/><path fill="#2a5f9e" d="M32,2C15.432,2,2,15.432,2,32h30V2z"/><path fill="#fff" d="M20 22.244 25.563 26 23.459 19.893 29 16.11 22.14 16.09 20 10 17.859 16.09 11 16.11 16.537 19.893 14.438 26z"/></svg>

<svg xmlns="http://www.w3.org/2000/svg" width="64" height="64" viewBox="0 0 64 64"><path fill="#ED4C5C" d="M56 14H32v6h27.496A29.92 29.92 0 0 0 56 14z"/><path fill="#F9F9F9" d="M61.398 38A30.03 30.03 0 0 0 62 32H2c0 2.055.207 4.061.602 6h58.796z"/><path fill="#ED4C5C" d="M32 2v6h18a29.856 29.856 0 0 0-18-6z"/><path fill="#F9F9F9" d="M32 14h24a30.186 30.186 0 0 0-6-6H32v6zM59.496 20H32v6h29.398a29.64 29.64 0 0 0-1.902-6z"/><path fill="#ED4C5C" d="M32 26v6h30a30.03 30.03 0 0 0-.602-6H32zM4.504 44h54.992a29.64 29.64 0 0 0 1.902-6H2.602a29.64 29.64 0 0 0 1.902 6z"/><path fill="#F9F9F9" d="M8 50h48a29.92 29.92 0 0 0 3.496-6H4.504A29.92 29.92 0 0 0 8 50z"/><path fill="#ED4C5C" d="M8 50a30.24 30.24 0 0 0 6 6h36a30.186 30.186 0 0 0 6-6H8z"/><path fill="#F9F9F9" d="M14 56c5.014 3.766 11.246 6 18 6s12.986-2.234 18-6H14z"/><path fill="#2A5F9E" d="M32 2C15.432 2 2 15.432 2 32h30V2z"/><path fill="#FFF" d="M20 22.244L25.563 26l-2.104-6.107L29 16.109l-6.859-.017L20 10l-2.141 6.092-6.859.017 5.537 3.784L14.438 26z"/></svg>
